icon-themes/breeze_svg/sw/res/sidebar/pageproppanel/formatnormal_24x24.svg

<svg viewBox="0 0 24 24" xmlns="http://www.w3.org/2000/svg"><path d="m3 6v1 13h1 18v-13-1h-1-17zm1 1h17v12h-16-1z" fill="#4d4d4d"/><path d="m6 7v2h-2v1h2v6h-2v1h2v2h1v-2h11v2h1v-2h2v-1h-2v-6h2v-1h-2v-2h-1v2h-11v-2zm1 3h11v6h-11z" fill="#1d99f3"/></svg>

<svg xmlns="http://www.w3.org/2000/svg" viewBox="0 0 24 24">
 <path 
     style="fill:#4d4d4d" 
     d="M 3 6 L 3 7 L 3 20 L 4 20 L 22 20 L 22 7 L 22 6 L 21 6 L 4 6 L 3 6 z M 4 7 L 21 7 L 21 19 L 5 19 L 4 19 L 4 7 z "
     />
 <path 
     style="fill:#1d99f3" 
     d="M 6 7 L 6 9 L 4 9 L 4 10 L 6 10 L 6 16 L 4 16 L 4 17 L 6 17 L 6 19 L 7 19 L 7 17 L 18 17 L 18 19 L 19 19 L 19 17 L 21 17 L 21 16 L 19 16 L 19 10 L 21 10 L 21 9 L 19 9 L 19 7 L 18 7 L 18 9 L 7 9 L 7 7 L 6 7 z M 7 10 L 18 10 L 18 16 L 7 16 L 7 10 z "
     />
</svg>
